svg/cacti.svg

<svg xmlns="http://www.w3.org/2000/svg" xml:space="preserve" width="94.649" height="150.457"><defs><linearGradient id="a" x1="272.65" x2="358.84" y1="412.103" y2="367.539" gradientTransform="translate(-268.346 335.748)" gradientUnits="userSpaceOnUse" spreadMethod="pad"><stop offset="0" style="stop-opacity:1;stop-color:#b1e356"/><stop offset=".685" style="stop-opacity:1;stop-color:#080"/><stop offset=".978" style="stop-opacity:1;stop-color:#006800"/><stop offset="1" style="stop-opacity:1;stop-color:#006800"/></linearGradient><linearGradient id="b" x1="326.963" x2="345.272" y1="408.838" y2="399.371" gradientTransform="translate(-268.346 335.748)" gradientUnits="userSpaceOnUse" spreadMethod="pad"><stop offset="0" style="stop-opacity:1;stop-color:#080"/><stop offset=".051" style="stop-opacity:1;stop-color:#080"/><stop offset=".978" style="stop-opacity:1;stop-color:#006800"/><stop offset="1" style="stop-opacity:1;stop-color:#006800"/></linearGradient><linearGradient id="c" x1="281.431" x2="358.317" y1="410.207" y2="370.453" gradientTransform="translate(-268.346 335.748)" gradientUnits="userSpaceOnUse" spreadMethod="pad"><stop offset="0" style="stop-opacity:1;stop-color:#60b656"/><stop offset=".494" style="stop-opacity:1;stop-color:#086d05"/><stop offset=".528" style="stop-opacity:1;stop-color:#080"/><stop offset=".978" style="stop-opacity:1;stop-color:#004900"/><stop offset="1" style="stop-opacity:1;stop-color:#004900"/></linearGradient><linearGradient id="d" x1="321.17" x2="335.388" y1="396.925" y2="389.574" gradientTransform="translate(-268.346 335.748)" gradientUnits="userSpaceOnUse" spreadMethod="pad"><stop offset="0" style="stop-opacity:1;stop-color:#080"/><stop offset=".051" style="stop-opacity:1;stop-color:#080"/><stop offset=".978" style="stop-opacity:1;stop-color:#006800"/><stop offset="1" style="stop-opacity:1;stop-color:#006800"/></linearGradient><linearGradient id="e" x1="280.252" x2="304.055" y1="414.804" y2="402.497" gradientTransform="translate(-268.346 335.748)" gradientUnits="userSpaceOnUse" spreadMethod="pad"><stop offset="0" style="stop-opacity:1;stop-color:#7cac56"/><stop offset=".494" style="stop-opacity:1;stop-color:#086d05"/><stop offset=".528" style="stop-opacity:1;stop-color:#080"/><stop offset=".978" style="stop-opacity:1;stop-color:#004900"/><stop offset="1" style="stop-opacity:1;stop-color:#004900"/></linearGradient><linearGradient id="f" x1="268.896" x2="303.233" y1="401.524" y2="383.77" gradientTransform="translate(-268.346 335.748)" gradientUnits="userSpaceOnUse" spreadMethod="pad"><stop offset="0" style="stop-opacity:1;stop-color:#7cac56"/><stop offset=".494" style="stop-opacity:1;stop-color:#086d05"/><stop offset=".528" style="stop-opacity:1;stop-color:#080"/><stop offset=".978" style="stop-opacity:1;stop-color:#004900"/><stop offset="1" style="stop-opacity:1;stop-color:#004900"/></linearGradient></defs><path d="M32.813 718.309s.5-13.75-2.5-20c0 0-5.25-14.5 1-25 0 0 17.333-9.166 29.932 4.242 0 0 1.735 3.592-.931 10.758 0 0-3.25 8.75-3.5 25 0 0 .25 6.75 1 11 0 0 18 1 19.5 15.5 0 0 1.5 16-6 18 0 0-10.5 2.25-10.5-7.5 0 0 1.5-10.75-4-11 0 0-2 1-2 7.5 0 0 2.5 20.5-6.5 35.5 0 0-7.5 12-19.5 2.5 0 0-4.5-4.5 0-14 0 0 7.5-19 4-32 0 0-.75-6.75-4.5-6.5 0 0-5-.5-2.5 9 0 0 5.5 12.75-3 18 0 0-12.5 4.5-16.5-12.5 0 0-5-13.5.5-23.5 0 0 4.75-8.75 26-5" style="fill:#155104;fill-opacity:1;fill-rule:nonzero;stroke:none" transform="matrix(1.25 0 0 -1.25 -2.146 988.27)"/><path d="M30.813 719.977s.5-13.75-2.5-20c0 0-5.25-14.5 1-25 0 0 17.333-9.168 29.932 4.242 0 0 1.735 3.59-.931 10.758 0 0-3.25 8.75-3.5 25 0 0 .25 6.75 1 11 0 0 18 1 19.5 15.499 0 0 1.5 16-6 18 0 0-10.5 2.25-10.5-7.5 0 0 1.5-10.75-4-11 0 0-2 1-2 7.5 0 0 2.5 20.5-6.5 35.5 0 0-7.5 12-19.5 2.5 0 0-4.5-4.5 0-14 0 0 7.5-19 4-32 0 0-.75-6.75-4.5-6.5 0 0-5-.5-2.5 9 0 0 5.5 12.75-3 18 0 0-12.5 4.5-16.5-12.5 0 0-5-13.5.5-23.5 0 0 4.75-8.75 26-5z" style="fill:url(#a);fill-opacity:1;fill-rule:nonzero;stroke:#000;stroke-width:1;stroke-linecap:butt;stroke-linejoin:miter;stroke-miterlimit:4;stroke-dasharray:none;stroke-opacity:1" transform="matrix(1.25 0 0 -1.25 -2.146 988.27)"/><path d="M65.98 759.143c1-.372 2.611-1.129 3.265-2.067.41-.588-.285-1.701.045-2.266.342-.587 1.522-1.382 1.69-1.706.992-1.898.855-1.75.992-3.62.148-2.006-.93-3.066-1.09-4.6-.307-2.95 1.125-5.273-.228-8.074-1.424-2.95-3.13-4.67-5.95-6.059.287-5.628-8.638-.282-9.013-5.224 3.648.243 8.912 2.041 11.011 5.225 6.32 2.014 10.297 10.268 9.612 16.724-.391 3.682-3.567 14.399-9.334 11.334" style="fill:url(#b);fill-opacity:.67000002;fill-rule:nonzero;stroke:none" transform="matrix(1.25 0 0 -1.25 -2.146 988.27)"/><path d="M37.313 787.81c4.337-.901 4.528-3.689 5.593-7 .875-2.723 2.49-5.016 3.074-7.982.592-3.004.279-6.045 1.074-8.936.646-2.351 1.613-4.983 1.852-7.49.53-5.629 1.408-10.692 1.408-16.26 0-3.33.424-5.717 1-8.666.138-.71-.19-1.544-.008-2.242.258-.986-.19-1.994.008-2.757.373-1.452-.432-2.772-.668-4.334-.703-4.645.502-8.391.017-13-.316-3.016 1.073-4.674 1.217-7.666.108-2.206.111-.856-.648-3.018-.373-1.059-1.285-1.305-1.258-2.725.043-2.19 2.314-3.923 2.924-5.933.677-2.227.287-3.875-.27-5.973-.373-1.406-.512-5.049-1.38-6.37-1.266-1.92-4.419-1.673-6.217-3.038-.047-.432-.028-.797 0-1.227 4.126-.62 4.744 1.858 7.949 3.301 1.728.777 5.32.324 6.265 2.725 1.014 2.572-2.318 4.361-2.6 6.924-.31 2.841-.224 4.933-.925 7.74-2.752 11.027-2.893 23.32-2.406 35.205.14 3.45.843 7.25.34 10.73-.325 2.235-1.325 4.403-1.655 6.677-.783 5.388-1.353 11.102-1.353 16.648 0 9.062-2.887 21.827-11.666 25.667-1.337.585-2.277 1.256-3.892 1.024 1.37-.714 2.197-1.915 3.558-2.691" style="fill:url(#c);fill-opacity:.77999998;fill-rule:nonzero;stroke:none" transform="matrix(1.25 0 0 -1.25 -2.146 988.27)"/><path d="M52.314 730.81c1.205-.013 2.427.01 3.617-.05 1.185-6.14 8.334 1.658 11.338 1-3.043-4.649-9.559-5.485-15.238-5.233.158 1.246-.194 2.284-1.026 2.873 4.1.305 8.479.23 12.59.028-.016-.166-.03-.742-.008-.895-.79-.258-1.754-.7-2.607-.724" style="fill:url(#d);fill-opacity:.67000002;fill-rule:nonzero;stroke:none" transform="matrix(1.25 0 0 -1.25 -2.146 988.27)"/><path d="M17.647 758.143c3.201-.86 1.694-7.091 1.083-9.092-.233-.764-1.35-.89-1.45-1.925-.045-.482 1.197-1.213 1.283-1.741.254-1.55.155-2.97.076-4.568-.14-2.863-.107-6.831 2.242-8.432 2.74-1.87 6.74.137 7.992 2.69-1.753-.115-3.299-.897-5.176-.549-.493 2.369-1.437 5.016-1.384 7.617.055 2.657 1.735 5.233 2 8 .276 2.865-.762 6.035-2.333 8.333-1.339 1.959-6.562 4.179-5.308-.258q.475-.232.975-.408" style="fill:url(#e);fill-opacity:.47999998;fill-rule:nonzero;stroke:none" transform="matrix(1.25 0 0 -1.25 -2.146 988.27)"/><path d="M4.313 745.143c-.359-3.602-1.527-7.263-.757-11.008.61-2.965 1.552-7.809 3.823-10 4.403-4.25 14.593-3.905 20.54-3.61q.25.266.276.635c-1.961 1.074-5.015.526-7.124 1.067-2.202.566-5.99 1.105-8.091 1.982-2.292.957-3.696 2.977-4.333 4.934-1.203 3.694.798 5.224-3.334 7.333 1.283 3.61-1.666 4.303-1.666 7" style="fill:url(#f);fill-opacity:.47999998;fill-rule:nonzero;stroke:none" transform="matrix(1.25 0 0 -1.25 -2.146 988.27)"/><path d="M38.98 788.81s8.334-5.334 8.334-30.334l2-84.624" style="fill:none;stroke:#fff;stroke-width:2;stroke-linecap:round;stroke-linejoin:miter;stroke-miterlimit:4;stroke-dasharray:none;stroke-opacity:.25" transform="matrix(1.25 0 0 -1.25 -2.146 988.27)"/><path d="M32.647 789.143s10.333-6.334 10.333-27l2.05-88.95" style="fill:none;stroke:#fff;stroke-width:2;stroke-linecap:round;stroke-linejoin:miter;stroke-miterlimit:4;stroke-dasharray:none;stroke-opacity:.25" transform="matrix(1.25 0 0 -1.25 -2.146 988.27)"/><path d="M29.647 787.476s9.333-11 9-28.333 1.333-86.334 1.333-86.334" style="fill:none;stroke:#fff;stroke-width:2;stroke-linecap:round;stroke-linejoin:miter;stroke-miterlimit:4;stroke-dasharray:none;stroke-opacity:.25" transform="matrix(1.25 0 0 -1.25 -2.146 988.27)"/><path d="M25.98 783.476s8-11 8-40.666c0-29.667.333-68.833.333-68.833" style="fill:none;stroke:#fff;stroke-width:2;stroke-linecap:round;stroke-linejoin:miter;stroke-miterlimit:4;stroke-dasharray:none;stroke-opacity:.25" transform="matrix(1.25 0 0 -1.25 -2.146 988.27)"/><path d="m30.647 738.476-.334-64.333m-13.333 87s-16.666-7.668-9.333-39.334" style="fill:none;stroke:#fff;stroke-width:1;stroke-linecap:round;stroke-linejoin:miter;stroke-miterlimit:4;stroke-dasharray:none;stroke-opacity:.25" transform="matrix(1.25 0 0 -1.25 -2.146 988.27)"/><path d="M20.647 760.143s-12.833-8-10.167-38.666" style="fill:none;stroke:#fff;stroke-width:1;stroke-linecap:round;stroke-linejoin:miter;stroke-miterlimit:4;stroke-dasharray:none;stroke-opacity:.25" transform="matrix(1.25 0 0 -1.25 -2.146 988.27)"/><path d="M22.647 758.81s-9.5-13.334-8.167-38.667m10.5 32.167s-9-12.501-7.333-32.501m5.333 16.334s-2.5-9-1.833-16.334m5.041 13.792s-.708-6.124-.041-13.792m27.417-44.582-2.25 84.249s-1 18-4 22.334m10.75-103.583-2.084 20.75m7.334 59.499s7.332-9.666 5-27.666m-8 25.666s4-12.334 4-28m-5.334 18s1.334-12.5 1-19.5m-4.334 13.834s1.668-8.667 1.002-14.333" style="fill:none;stroke:#fff;stroke-width:1;stroke-linecap:round;stroke-linejoin:miter;stroke-miterlimit:4;stroke-dasharray:none;stroke-opacity:.25" transform="matrix(1.25 0 0 -1.25 -2.146 988.27)"/></svg>

<svg xmlns="http://www.w3.org/2000/svg" xml:space="preserve" width="94.649" height="150.457"><defs><linearGradient id="a" x1="272.65" x2="358.84" y1="412.103" y2="367.539" gradientTransform="translate(-268.346 335.748)" gradientUnits="userSpaceOnUse" spreadMethod="pad"><stop offset="0" style="stop-opacity:1;stop-color:#b1e356"/><stop offset=".685" style="stop-opacity:1;stop-color:#080"/><stop offset=".978" style="stop-opacity:1;stop-color:#006800"/><stop offset="1" style="stop-opacity:1;stop-color:#006800"/></linearGradient><linearGradient id="b" x1="326.963" x2="345.272" y1="408.838" y2="399.371" gradientTransform="translate(-268.346 335.748)" gradientUnits="userSpaceOnUse" spreadMethod="pad"><stop offset="0" style="stop-opacity:1;stop-color:#080"/><stop offset=".051" style="stop-opacity:1;stop-color:#080"/><stop offset=".978" style="stop-opacity:1;stop-color:#006800"/><stop offset="1" style="stop-opacity:1;stop-color:#006800"/></linearGradient><linearGradient id="c" x1="281.431" x2="358.317" y1="410.207" y2="370.453" gradientTransform="translate(-268.346 335.748)" gradientUnits="userSpaceOnUse" spreadMethod="pad"><stop offset="0" style="stop-opacity:1;stop-color:#60b656"/><stop offset=".494" style="stop-opacity:1;stop-color:#086d05"/><stop offset=".528" style="stop-opacity:1;stop-color:#080"/><stop offset=".978" style="stop-opacity:1;stop-color:#004900"/><stop offset="1" style="stop-opacity:1;stop-color:#004900"/></linearGradient><linearGradient id="d" x1="321.17" x2="335.388" y1="396.925" y2="389.574" gradientTransform="translate(-268.346 335.748)" gradientUnits="userSpaceOnUse" spreadMethod="pad"><stop offset="0" style="stop-opacity:1;stop-color:#080"/><stop offset=".051" style="stop-opacity:1;stop-color:#080"/><stop offset=".978" style="stop-opacity:1;stop-color:#006800"/><stop offset="1" style="stop-opacity:1;stop-color:#006800"/></linearGradient><linearGradient id="e" x1="280.252" x2="304.055" y1="414.804" y2="402.497" gradientTransform="translate(-268.346 335.748)" gradientUnits="userSpaceOnUse" spreadMethod="pad"><stop offset="0" style="stop-opacity:1;stop-color:#7cac56"/><stop offset=".494" style="stop-opacity:1;stop-color:#086d05"/><stop offset=".528" style="stop-opacity:1;stop-color:#080"/><stop offset=".978" style="stop-opacity:1;stop-color:#004900"/><stop offset="1" style="stop-opacity:1;stop-color:#004900"/></linearGradient><linearGradient id="f" x1="268.896" x2="303.233" y1="401.524" y2="383.77" gradientTransform="translate(-268.346 335.748)" gradientUnits="userSpaceOnUse" spreadMethod="pad"><stop offset="0" style="stop-opacity:1;stop-color:#7cac56"/><stop offset=".494" style="stop-opacity:1;stop-color:#086d05"/><stop offset=".528" style="stop-opacity:1;stop-color:#080"/><stop offset=".978" style="stop-opacity:1;stop-color:#004900"/><stop offset="1" style="stop-opacity:1;stop-color:#004900"/></linearGradient></defs><path d="M32.813 718.309s.5-13.75-2.5-20c0 0-5.25-14.5 1-25 0 0 17.333-9.166 29.932 4.242 0 0 1.735 3.592-.931 10.758 0 0-3.25 8.75-3.5 25 0 0 .25 6.75 1 11 0 0 18 1 19.5 15.5 0 0 1.5 16-6 18 0 0-10.5 2.25-10.5-7.5 0 0 1.5-10.75-4-11 0 0-2 1-2 7.5 0 0 2.5 20.5-6.5 35.5 0 0-7.5 12-19.5 2.5 0 0-4.5-4.5 0-14 0 0 7.5-19 4-32 0 0-.75-6.75-4.5-6.5 0 0-5-.5-2.5 9 0 0 5.5 12.75-3 18 0 0-12.5 4.5-16.5-12.5 0 0-5-13.5.5-23.5 0 0 4.75-8.75 26-5" style="fill:#155104;fill-opacity:1;fill-rule:nonzero;stroke:none" transform="matrix(1.25 0 0 -1.25 -2.146 988.27)"/><path d="M30.813 719.977s.5-13.75-2.5-20c0 0-5.25-14.5 1-25 0 0 17.333-9.168 29.932 4.242 0 0 1.735 3.59-.931 10.758 0 0-3.25 8.75-3.5 25 0 0 .25 6.75 1 11 0 0 18 1 19.5 15.499 0 0 1.5 16-6 18 0 0-10.5 2.25-10.5-7.5 0 0 1.5-10.75-4-11 0 0-2 1-2 7.5 0 0 2.5 20.5-6.5 35.5 0 0-7.5 12-19.5 2.5 0 0-4.5-4.5 0-14 0 0 7.5-19 4-32 0 0-.75-6.75-4.5-6.5 0 0-5-.5-2.5 9 0 0 5.5 12.75-3 18 0 0-12.5 4.5-16.5-12.5 0 0-5-13.5.5-23.5 0 0 4.75-8.75 26-5z" style="fill:url(#a);fill-opacity:1;fill-rule:nonzero;stroke:#000;stroke-width:1;stroke-linecap:butt;stroke-linejoin:miter;stroke-miterlimit:4;stroke-dasharray:none;stroke-opacity:1" transform="matrix(1.25 0 0 -1.25 -2.146 988.27)"/><path d="M65.98 759.143c1-.372 2.611-1.129 3.265-2.067.41-.588-.285-1.701.045-2.266.342-.587 1.522-1.382 1.69-1.706.992-1.898.855-1.75.992-3.62.148-2.006-.93-3.066-1.09-4.6-.307-2.95 1.125-5.273-.228-8.074-1.424-2.95-3.13-4.67-5.95-6.059.287-5.628-8.638-.282-9.013-5.224 3.648.243 8.912 2.041 11.011 5.225 6.32 2.014 10.297 10.268 9.612 16.724-.391 3.682-3.567 14.399-9.334 11.334" style="fill:url(#b);fill-opacity:.67000002;fill-rule:nonzero;stroke:none" transform="matrix(1.25 0 0 -1.25 -2.146 988.27)"/><path d="M37.313 787.81c4.337-.901 4.528-3.689 5.593-7 .875-2.723 2.49-5.016 3.074-7.982.592-3.004.279-6.045 1.074-8.936.646-2.351 1.613-4.983 1.852-7.49.53-5.629 1.408-10.692 1.408-16.26 0-3.33.424-5.717 1-8.666.138-.71-.19-1.544-.008-2.242.258-.986-.19-1.994.008-2.757.373-1.452-.432-2.772-.668-4.334-.703-4.645.502-8.391.017-13-.316-3.016 1.073-4.674 1.217-7.666.108-2.206.111-.856-.648-3.018-.373-1.059-1.285-1.305-1.258-2.725.043-2.19 2.314-3.923 2.924-5.933.677-2.227.287-3.875-.27-5.973-.373-1.406-.512-5.049-1.38-6.37-1.266-1.92-4.419-1.673-6.217-3.038-.047-.432-.028-.797 0-1.227 4.126-.62 4.744 1.858 7.949 3.301 1.728.777 5.32.324 6.265 2.725 1.014 2.572-2.318 4.361-2.6 6.924-.31 2.841-.224 4.933-.925 7.74-2.752 11.027-2.893 23.32-2.406 35.205.14 3.45.843 7.25.34 10.73-.325 2.235-1.325 4.403-1.655 6.677-.783 5.388-1.353 11.102-1.353 16.648 0 9.062-2.887 21.827-11.666 25.667-1.337.585-2.277 1.256-3.892 1.024 1.37-.714 2.197-1.915 3.558-2.691" style="fill:url(#c);fill-opacity:.77999998;fill-rule:nonzero;stroke:none" transform="matrix(1.25 0 0 -1.25 -2.146 988.27)"/><path d="M52.314 730.81c1.205-.013 2.427.01 3.617-.05 1.185-6.14 8.334 1.658 11.338 1-3.043-4.649-9.559-5.485-15.238-5.233.158 1.246-.194 2.284-1.026 2.873 4.1.305 8.479.23 12.59.028-.016-.166-.03-.742-.008-.895-.79-.258-1.754-.7-2.607-.724" style="fill:url(#d);fill-opacity:.67000002;fill-rule:nonzero;stroke:none" transform="matrix(1.25 0 0 -1.25 -2.146 988.27)"/><path d="M17.647 758.143c3.201-.86 1.694-7.091 1.083-9.092-.233-.764-1.35-.89-1.45-1.925-.045-.482 1.197-1.213 1.283-1.741.254-1.55.155-2.97.076-4.568-.14-2.863-.107-6.831 2.242-8.432 2.74-1.87 6.74.137 7.992 2.69-1.753-.115-3.299-.897-5.176-.549-.493 2.369-1.437 5.016-1.384 7.617.055 2.657 1.735 5.233 2 8 .276 2.865-.762 6.035-2.333 8.333-1.339 1.959-6.562 4.179-5.308-.258q.475-.232.975-.408" style="fill:url(#e);fill-opacity:.47999998;fill-rule:nonzero;stroke:none" transform="matrix(1.25 0 0 -1.25 -2.146 988.27)"/><path d="M4.313 745.143c-.359-3.602-1.527-7.263-.757-11.008.61-2.965 1.552-7.809 3.823-10 4.403-4.25 14.593-3.905 20.54-3.61q.25.266.276.635c-1.961 1.074-5.015.526-7.124 1.067-2.202.566-5.99 1.105-8.091 1.982-2.292.957-3.696 2.977-4.333 4.934-1.203 3.694.798 5.224-3.334 7.333 1.283 3.61-1.666 4.303-1.666 7" style="fill:url(#f);fill-opacity:.47999998;fill-rule:nonzero;stroke:none" transform="matrix(1.25 0 0 -1.25 -2.146 988.27)"/><path d="M38.98 788.81s8.334-5.334 8.334-30.334l2-84.624" style="fill:none;stroke:#fff;stroke-width:2;stroke-linecap:round;stroke-linejoin:miter;stroke-miterlimit:4;stroke-dasharray:none;stroke-opacity:.25" transform="matrix(1.25 0 0 -1.25 -2.146 988.27)"/><path d="M32.647 789.143s10.333-6.334 10.333-27l2.05-88.95" style="fill:none;stroke:#fff;stroke-width:2;stroke-linecap:round;stroke-linejoin:miter;stroke-miterlimit:4;stroke-dasharray:none;stroke-opacity:.25" transform="matrix(1.25 0 0 -1.25 -2.146 988.27)"/><path d="M29.647 787.476s9.333-11 9-28.333 1.333-86.334 1.333-86.334" style="fill:none;stroke:#fff;stroke-width:2;stroke-linecap:round;stroke-linejoin:miter;stroke-miterlimit:4;stroke-dasharray:none;stroke-opacity:.25" transform="matrix(1.25 0 0 -1.25 -2.146 988.27)"/><path d="M25.98 783.476s8-11 8-40.666c0-29.667.333-68.833.333-68.833" style="fill:none;stroke:#fff;stroke-width:2;stroke-linecap:round;stroke-linejoin:miter;stroke-miterlimit:4;stroke-dasharray:none;stroke-opacity:.25" transform="matrix(1.25 0 0 -1.25 -2.146 988.27)"/><path d="m30.647 738.476-.334-64.333M16.98 761.143s-16.666-7.668-9.333-39.334" style="fill:none;stroke:#fff;stroke-width:1;stroke-linecap:round;stroke-linejoin:miter;stroke-miterlimit:4;stroke-dasharray:none;stroke-opacity:.25" transform="matrix(1.25 0 0 -1.25 -2.146 988.27)"/><path d="M20.647 760.143s-12.833-8-10.167-38.666" style="fill:none;stroke:#fff;stroke-width:1;stroke-linecap:round;stroke-linejoin:miter;stroke-miterlimit:4;stroke-dasharray:none;stroke-opacity:.25" transform="matrix(1.25 0 0 -1.25 -2.146 988.27)"/><path d="M22.647 758.81s-9.5-13.334-8.167-38.667M24.98 752.31s-9-12.501-7.333-32.501M22.98 736.143s-2.5-9-1.833-16.334M26.188 733.601s-.708-6.124-.041-13.792M53.564 675.227l-2.25 84.249s-1 18-4 22.334M58.064 678.227l-2.084 20.75M63.314 758.476s7.332-9.666 5-27.666M60.314 756.476s4-12.334 4-28M58.98 746.476s1.334-12.5 1-19.5M55.646 740.81s1.668-8.667 1.002-14.333" style="fill:none;stroke:#fff;stroke-width:1;stroke-linecap:round;stroke-linejoin:miter;stroke-miterlimit:4;stroke-dasharray:none;stroke-opacity:.25" transform="matrix(1.25 0 0 -1.25 -2.146 988.27)"/></svg>
